X:10531
T:Mazurka 
C:willem Schot (Kremsmnster 2000)
M:3/4
L:1/8
K:G
DEF|GF GB AB|GF ED EF|GF GB AB|1 G3:|c4||
|:Bd|c2 BA Bd|A2 AB cA|BG FG AG|FE D2 Bd|c2 BA Bd|A2 AB cA|BG FG AF|G4:|
